src/assets/mockups/iPhone8_Plus.svg

<svg width="469" height="975" viewBox="0 0 469 975" fill="none" xmlns="http://www.w3.org/2000/svg">
<path fill-rule="evenodd" clip-rule="evenodd" d="M67.5461 0.162598C31.9694 0.162598 3.12875 28.9457 3.12875 64.4514V121.8C1.73877 122.291 0.74292 123.614 0.74292 125.169V154.932C0.74292 156.487 1.73877 157.81 3.12875 158.3V209.9C1.73877 210.39 0.74292 211.713 0.74292 213.268V270.414C0.74292 271.969 1.73877 273.292 3.12875 273.782V295.618C1.73877 296.109 0.74292 297.432 0.74292 298.987V356.132C0.74292 357.687 1.73877 359.01 3.12875 359.501V909.731C3.12875 945.237 31.9694 974.02 67.5461 974.02H400.369C435.946 974.02 464.787 945.237 464.787 909.731V273.985C466.763 273.985 468.365 272.386 468.365 270.414V207.316C468.365 205.343 466.763 203.744 464.787 203.744V64.4514C464.787 28.9457 435.946 0.162598 400.369 0.162598H67.5461Z" fill="#B3B3B3"/>
<mask id="mask0_196_3578" style="mask-type:alpha" maskUnits="userSpaceOnUse" x="0" y="0" width="469" height="975">
<path fill-rule="evenodd" clip-rule="evenodd" d="M67.5461 0.162598C31.9694 0.162598 3.12875 28.9457 3.12875 64.4514V121.8C1.73877 122.291 0.74292 123.614 0.74292 125.169V154.932C0.74292 156.487 1.73877 157.81 3.12875 158.3V209.9C1.73877 210.39 0.74292 211.713 0.74292 213.268V270.414C0.74292 271.969 1.73877 273.292 3.12875 273.782V295.618C1.73877 296.109 0.74292 297.432 0.74292 298.987V356.132C0.74292 357.687 1.73877 359.01 3.12875 359.501V909.731C3.12875 945.237 31.9694 974.02 67.5461 974.02H400.369C435.946 974.02 464.787 945.237 464.787 909.731V273.985C466.763 273.985 468.365 272.386 468.365 270.414V207.316C468.365 205.343 466.763 203.744 464.787 203.744V64.4514C464.787 28.9457 435.946 0.162598 400.369 0.162598H67.5461Z" fill="#F3E1D7"/>
</mask>
<g mask="url(#mask0_196_3578)">
<g style="mix-blend-mode:overlay" opacity="0.5">
<path fill-rule="evenodd" clip-rule="evenodd" d="M66.2523 7.8501H401.81C432.453 7.8501 457.294 32.6417 457.294 63.2236V909.931C457.294 940.513 432.453 965.304 401.81 965.304H66.2523C35.6092 965.304 10.7681 940.513 10.7681 909.931V63.2236C10.7681 32.6417 35.6092 7.8501 66.2523 7.8501ZM66.2523 8.95316C36.2196 8.95316 11.8733 33.2509 11.8733 63.2236V909.931C11.8733 939.903 36.2196 964.201 66.2523 964.201H401.81C431.843 964.201 456.189 939.903 456.189 909.931V63.2236C456.189 33.2509 431.843 8.95316 401.81 8.95316H66.2523Z" fill="url(#paint0_linear_196_3578)"/>
</g>
<g style="mix-blend-mode:overlay" opacity="0.4">
<path fill-rule="evenodd" clip-rule="evenodd" d="M66.2523 7.8501H401.81C432.453 7.8501 457.294 32.6417 457.294 63.2236V909.931C457.294 940.513 432.453 965.304 401.81 965.304H66.2523C35.6092 965.304 10.7681 940.513 10.7681 909.931V63.2236C10.7681 32.6417 35.6092 7.8501 66.2523 7.8501ZM66.2523 8.95316C36.2196 8.95316 11.8733 33.2509 11.8733 63.2236V909.931C11.8733 939.903 36.2196 964.201 66.2523 964.201H401.81C431.843 964.201 456.189 939.903 456.189 909.931V63.2236C456.189 33.2509 431.843 8.95316 401.81 8.95316H66.2523Z" fill="url(#paint1_radial_196_3578)"/>
</g>
</g>
<g style="mix-blend-mode:overlay">
<path d="M464.787 203.744C466.763 203.744 468.365 205.343 468.365 207.315V270.414C468.365 272.386 466.763 273.985 464.787 273.985V203.744Z" fill="url(#paint2_linear_196_3578)" fill-opacity="0.3"/>
<path d="M464.787 203.744C466.763 203.744 468.365 205.343 468.365 207.315V270.414C468.365 272.386 466.763 273.985 464.787 273.985V203.744Z" fill="url(#paint3_linear_196_3578)" fill-opacity="0.3"/>
<path fill-rule="evenodd" clip-rule="evenodd" d="M3.12875 295.618C1.73881 296.108 0.74292 297.431 0.74292 298.987V356.132C0.74292 357.687 1.73881 359.01 3.12875 359.501V295.618Z" fill="url(#paint4_linear_196_3578)" fill-opacity="0.3"/>
<path fill-rule="evenodd" clip-rule="evenodd" d="M3.12875 295.618C1.73881 296.108 0.74292 297.431 0.74292 298.987V356.132C0.74292 357.687 1.73881 359.01 3.12875 359.501V295.618Z" fill="url(#paint5_linear_196_3578)" fill-opacity="0.3"/>
<path fill-rule="evenodd" clip-rule="evenodd" d="M3.12875 209.902C1.73881 210.392 0.74292 211.715 0.74292 213.27V270.416C0.74292 271.971 1.73881 273.294 3.12875 273.784V209.902Z" fill="url(#paint6_linear_196_3578)" fill-opacity="0.3"/>
<path fill-rule="evenodd" clip-rule="evenodd" d="M3.12875 209.902C1.73881 210.392 0.74292 211.715 0.74292 213.27V270.416C0.74292 271.971 1.73881 273.294 3.12875 273.784V209.902Z" fill="url(#paint7_linear_196_3578)" fill-opacity="0.3"/>
<path fill-rule="evenodd" clip-rule="evenodd" d="M3.12875 121.796C1.73881 122.286 0.74292 123.609 0.74292 125.164V154.928C0.74292 156.483 1.73881 157.806 3.12875 158.296V121.796Z" fill="url(#paint8_linear_196_3578)" fill-opacity="0.3"/>
<path fill-rule="evenodd" clip-rule="evenodd" d="M3.12875 121.796C1.73881 122.286 0.74292 123.609 0.74292 125.164V154.928C0.74292 156.483 1.73881 157.806 3.12875 158.296V121.796Z" fill="url(#paint9_linear_196_3578)" fill-opacity="0.3"/>
</g>
<g style="mix-blend-mode:multiply" opacity="0.1">
<ellipse cx="233.958" cy="912.707" rx="37.5768" ry="37.5018" fill="url(#paint10_linear_196_3578)"/>
</g>
<g style="mix-blend-mode:overlay">
<path fill-rule="evenodd" clip-rule="evenodd" d="M209.918 936.699C223.195 949.95 244.721 949.95 257.998 936.699C271.275 923.449 271.275 901.965 257.998 888.715C244.721 875.464 223.195 875.464 209.918 888.715C196.64 901.965 196.64 923.449 209.918 936.699ZM207.387 939.225C222.062 953.87 245.854 953.87 260.529 939.225C275.203 924.579 275.203 900.835 260.529 886.189C245.854 871.544 222.062 871.544 207.387 886.189C192.712 900.835 192.712 924.579 207.387 939.225Z" fill="url(#paint11_linear_196_3578)"/>
</g>
<g style="mix-blend-mode:multiply" opacity="0.2">
<path d="M195.188 63.1869C195.188 61.2194 196.786 59.6245 198.757 59.6245H270.147C272.119 59.6245 273.717 61.2194 273.717 63.1869C273.717 65.1543 272.119 66.7493 270.147 66.7493H198.757C196.786 66.7493 195.188 65.1543 195.188 63.1869Z" fill="url(#paint12_linear_196_3578)"/>
</g>
<g style="mix-blend-mode:overlay">
<path fill-rule="evenodd" clip-rule="evenodd" d="M270.147 60.815H198.757C197.445 60.815 196.381 61.877 196.381 63.1869C196.381 64.4968 197.445 65.5587 198.757 65.5587H270.147C271.46 65.5587 272.524 64.4968 272.524 63.1869C272.524 61.877 271.46 60.815 270.147 60.815ZM198.757 59.6245C196.786 59.6245 195.188 61.2194 195.188 63.1869C195.188 65.1543 196.786 66.7493 198.757 66.7493H270.147C272.119 66.7493 273.717 65.1543 273.717 63.1869C273.717 61.2194 272.119 59.6245 270.147 59.6245H198.757Z" fill="url(#paint13_linear_196_3578)"/>
</g>
<g style="mix-blend-mode:multiply" opacity="0.2">
<path d="M168.898 63.1867C168.898 68.1053 164.902 72.0926 159.974 72.0926C155.046 72.0926 151.05 68.1053 151.05 63.1867C151.05 58.2681 155.046 54.2808 159.974 54.2808C164.902 54.2808 168.898 58.2681 168.898 63.1867Z" fill="url(#paint14_linear_196_3578)"/>
</g>
<g style="mix-blend-mode:overlay">
<path fill-rule="evenodd" clip-rule="evenodd" d="M159.974 70.9021C164.244 70.9021 167.705 67.4478 167.705 63.1867C167.705 58.9256 164.244 55.4713 159.974 55.4713C155.704 55.4713 152.243 58.9256 152.243 63.1867C152.243 67.4478 155.704 70.9021 159.974 70.9021ZM159.974 72.0926C164.902 72.0926 168.898 68.1053 168.898 63.1867C168.898 58.2681 164.902 54.2808 159.974 54.2808C155.046 54.2808 151.05 58.2681 151.05 63.1867C151.05 68.1053 155.046 72.0926 159.974 72.0926Z" fill="url(#paint15_linear_196_3578)"/>
</g>
<clipPath id="clipPath">
<rect x="26" y="118" width="416" height="738" rx="5" fill="white"/>
<rect x="26" y="118" width="416" height="738" rx="5" stroke="#181818" stroke-width="2" style="mix-blend-mode:overlay"/>
</clipPath>
<defs>
<linearGradient id="paint0_linear_196_3578" x1="240.693" y1="212.311" x2="457.526" y2="175.784" gradientUnits="userSpaceOnUse">
<stop stop-color="#636363" stop-opacity="0"/>
<stop offset="1"/>
</linearGradient>
<radialGradient id="paint1_radial_196_3578" cx="0" cy="0" r="1" gradientUnits="userSpaceOnUse" gradientTransform="translate(457.294 174.059) rotate(155.986) scale(468.417 1042.43)">
<stop stop-color="#636363"/>
<stop offset="1"/>
</radialGradient>
<linearGradient id="paint2_linear_196_3578" x1="464.787" y1="224.794" x2="468.366" y2="224.794" gradientUnits="userSpaceOnUse">
<stop/>
<stop offset="1" stop-color="#787878" stop-opacity="0.4"/>
</linearGradient>
<linearGradient id="paint3_linear_196_3578" x1="466.576" y1="203.744" x2="466.576" y2="273.985" gradientUnits="userSpaceOnUse">
<stop/>
<stop offset="0.10159" stop-opacity="0"/>
<stop offset="0.890418" stop-opacity="0"/>
<stop offset="1"/>
</linearGradient>
<linearGradient id="paint4_linear_196_3578" x1="3.956" y1="318.622" x2="0.74292" y2="318.622" gradientUnits="userSpaceOnUse">
<stop/>
<stop offset="1" stop-color="#787878" stop-opacity="0.4"/>
</linearGradient>
<linearGradient id="paint5_linear_196_3578" x1="1.93583" y1="295.618" x2="1.93583" y2="359.501" gradientUnits="userSpaceOnUse">
<stop/>
<stop offset="0.10159" stop-opacity="0"/>
<stop offset="0.890418" stop-opacity="0"/>
<stop offset="1"/>
</linearGradient>
<linearGradient id="paint6_linear_196_3578" x1="3.956" y1="232.906" x2="0.74292" y2="232.906" gradientUnits="userSpaceOnUse">
<stop/>
<stop offset="1" stop-color="#787878" stop-opacity="0.4"/>
</linearGradient>
<linearGradient id="paint7_linear_196_3578" x1="1.93583" y1="209.902" x2="1.93583" y2="273.784" gradientUnits="userSpaceOnUse">
<stop/>
<stop offset="0.10159" stop-opacity="0"/>
<stop offset="0.890418" stop-opacity="0"/>
<stop offset="1"/>
</linearGradient>
<linearGradient id="paint8_linear_196_3578" x1="3.956" y1="134.94" x2="0.74292" y2="134.94" gradientUnits="userSpaceOnUse">
<stop/>
<stop offset="1" stop-color="#787878" stop-opacity="0.4"/>
</linearGradient>
<linearGradient id="paint9_linear_196_3578" x1="1.93583" y1="121.796" x2="1.93583" y2="158.296" gradientUnits="userSpaceOnUse">
<stop/>
<stop offset="0.10159" stop-opacity="0"/>
<stop offset="0.890418" stop-opacity="0"/>
<stop offset="1"/>
</linearGradient>
<linearGradient id="paint10_linear_196_3578" x1="254.478" y1="874.852" x2="192.201" y2="966.522" gradientUnits="userSpaceOnUse">
<stop stop-color="#2B2B2B"/>
<stop offset="1" stop-color="#2B2B2B" stop-opacity="0"/>
</linearGradient>
<linearGradient id="paint11_linear_196_3578" x1="271.057" y1="878.163" x2="210.944" y2="940.127" gradientUnits="userSpaceOnUse">
<stop stop-color="#0B0B0B"/>
<stop offset="1" stop-color="#CDCDCD" stop-opacity="0.48"/>
</linearGradient>
<linearGradient id="paint12_linear_196_3578" x1="234.473" y1="59.694" x2="234.034" y2="72.9302" gradientUnits="userSpaceOnUse">
<stop/>
<stop offset="1" stop-color="#A3A3A3"/>
</linearGradient>
<linearGradient id="paint13_linear_196_3578" x1="230.379" y1="66.7493" x2="230.379" y2="59.6245" gradientUnits="userSpaceOnUse">
<stop/>
<stop offset="1" stop-color="white" stop-opacity="0.33"/>
</linearGradient>
<linearGradient id="paint14_linear_196_3578" x1="159.979" y1="54.4545" x2="149.303" y2="83.6818" gradientUnits="userSpaceOnUse">
<stop/>
<stop offset="1" stop-color="#A3A3A3"/>
</linearGradient>
<linearGradient id="paint15_linear_196_3578" x1="159.048" y1="72.0926" x2="159.048" y2="54.2808" gradientUnits="userSpaceOnUse">
<stop/>
<stop offset="1" stop-color="white" stop-opacity="0.49"/>
</linearGradient>
</defs>
</svg>

<svg id="svg324" fill="none" version="1.1" width="465" height="969" viewBox="0 0 465.46 969.36" xmlns="http://www.w3.org/2000/svg">
 <path id="path165" d="m66.494 0c-35.412 0-64.12 28.65-64.12 63.992v57.084c-1.3836 0.48875-2.3748 1.8054-2.3748 3.3532v29.626c0 1.5478 0.99125 2.8645 2.3748 3.3523v51.361c-1.3836 0.48775-2.3748 1.8049-2.3748 3.3527v56.882c0 1.5478 0.99125 2.8645 2.3748 3.3522v21.735c-1.3836 0.48875-2.3748 1.8055-2.3748 3.3533v56.881c0 1.5478 0.99125 2.8645 2.3748 3.3532v547.69c0 35.342 28.707 63.992 64.12 63.992h331.28c35.413 0 64.121-28.65 64.121-63.992v-632.81c1.967 0 3.5614-1.5914 3.5614-3.5544v-62.806c0-1.964-1.5944-3.5558-3.5614-3.5558v-138.65c0-35.342-28.708-63.992-64.121-63.992z" clip-rule="evenodd" fill="#b3b3b3" fill-rule="evenodd" stroke-width=".99536"/>
 <mask id="mask0_196_3578" x="0" y="0" width="469" height="975" maskUnits="userSpaceOnUse">
  <path id="path167" d="m67.546 0.1626c-35.577 0-64.417 28.783-64.417 64.289v57.349c-1.39 0.491-2.3858 1.814-2.3858 3.369v29.763c0 1.555 0.99585 2.878 2.3858 3.368v51.6c-1.39 0.49-2.3858 1.813-2.3858 3.368v57.146c0 1.555 0.99585 2.878 2.3858 3.368v21.836c-1.39 0.491-2.3858 1.814-2.3858 3.369v57.145c0 1.555 0.99585 2.878 2.3858 3.369v550.23c0 35.506 28.841 64.289 64.417 64.289h332.82c35.577 0 64.418-28.783 64.418-64.289v-635.75c1.976 0 3.578-1.599 3.578-3.571v-63.098c0-1.973-1.602-3.572-3.578-3.572v-139.29c0-35.506-28.841-64.289-64.418-64.289z" clip-rule="evenodd" fill="#f3e1d7" fill-rule="evenodd"/>
 </mask>
 <g id="g178" transform="matrix(.99538 0 0 .99538 -.73949 -.16185)" mask="url(#mask0_196_3578)">
  <g id="g172" opacity=".5" style="mix-blend-mode:overlay">
   <path id="path170" d="m66.252 7.8501h335.56c30.643 0 55.484 24.792 55.484 55.374v846.71c0 30.582-24.841 55.373-55.484 55.373h-335.56c-30.643 0-55.484-24.791-55.484-55.373v-846.71c0-30.582 24.841-55.374 55.484-55.374zm0 1.1031c-30.033 0-54.379 24.298-54.379 54.27v846.71c0 29.972 24.346 54.27 54.379 54.27h335.56c30.033 0 54.379-24.298 54.379-54.27v-846.71c0-29.973-24.346-54.27-54.379-54.27z" clip-rule="evenodd" fill="url(#paint0_linear_196_3578)" fill-rule="evenodd"/>
  </g>
  <g id="g176" opacity=".4" style="mix-blend-mode:overlay">
   <path id="path174" d="m66.252 7.8501h335.56c30.643 0 55.484 24.792 55.484 55.374v846.71c0 30.582-24.841 55.373-55.484 55.373h-335.56c-30.643 0-55.484-24.791-55.484-55.373v-846.71c0-30.582 24.841-55.374 55.484-55.374zm0 1.1031c-30.033 0-54.379 24.298-54.379 54.27v846.71c0 29.972 24.346 54.27 54.379 54.27h335.56c30.033 0 54.379-24.298 54.379-54.27v-846.71c0-29.973-24.346-54.27-54.379-54.27z" clip-rule="evenodd" fill="url(#paint1_radial_196_3578)" fill-rule="evenodd"/>
  </g>
 </g>
 <g id="g196" transform="matrix(.99538 0 0 .99538 -.73949 -.16185)" fill-opacity=".3" style="mix-blend-mode:overlay">
  <path id="path180" d="m464.79 203.74c1.976 0 3.578 1.599 3.578 3.571v63.099c0 1.972-1.602 3.571-3.578 3.571z" fill="url(#paint2_linear_196_3578)"/>
  <path id="path182" d="m464.79 203.74c1.976 0 3.578 1.599 3.578 3.571v63.099c0 1.972-1.602 3.571-3.578 3.571z" fill="url(#paint3_linear_196_3578)"/>
  <g clip-rule="evenodd" fill-rule="evenodd">
   <path id="path184" d="m3.1288 295.62c-1.3899 0.49-2.3858 1.813-2.3858 3.369v57.145c0 1.555 0.99589 2.878 2.3858 3.369z" fill="url(#paint4_linear_196_3578)"/>
   <path id="path186" d="m3.1288 295.62c-1.3899 0.49-2.3858 1.813-2.3858 3.369v57.145c0 1.555 0.99589 2.878 2.3858 3.369z" fill="url(#paint5_linear_196_3578)"/>
   <path id="path188" d="m3.1288 209.9c-1.3899 0.49-2.3858 1.813-2.3858 3.368v57.146c0 1.555 0.99589 2.878 2.3858 3.368z" fill="url(#paint6_linear_196_3578)"/>
   <path id="path190" d="m3.1288 209.9c-1.3899 0.49-2.3858 1.813-2.3858 3.368v57.146c0 1.555 0.99589 2.878 2.3858 3.368z" fill="url(#paint7_linear_196_3578)"/>
   <path id="path192" d="m3.1288 121.8c-1.3899 0.49-2.3858 1.813-2.3858 3.368v29.764c0 1.555 0.99589 2.878 2.3858 3.368z" fill="url(#paint8_linear_196_3578)"/>
   <path id="path194" d="m3.1288 121.8c-1.3899 0.49-2.3858 1.813-2.3858 3.368v29.764c0 1.555 0.99589 2.878 2.3858 3.368z" fill="url(#paint9_linear_196_3578)"/>
  </g>
 </g>
 <g id="g200" transform="matrix(.99538 0 0 .99538 -.73949 -.16185)" opacity=".1" style="mix-blend-mode:multiply">
  <ellipse id="ellipse198" cx="233.96" cy="912.71" rx="37.577" ry="37.502" fill="url(#paint10_linear_196_3578)"/>
 </g>
 <g id="g204" transform="matrix(.99538 0 0 .99538 -.73949 -.16185)" style="mix-blend-mode:overlay">
  <path id="path202" d="m209.92 936.7c13.277 13.251 34.803 13.251 48.08 0 13.277-13.25 13.277-34.734 0-47.984-13.277-13.251-34.803-13.251-48.08 0-13.278 13.25-13.278 34.734 0 47.984zm-2.531 2.526c14.675 14.645 38.467 14.645 53.142 0 14.674-14.646 14.674-38.39 0-53.036-14.675-14.645-38.467-14.645-53.142 0-14.675 14.646-14.675 38.39 0 53.036z" clip-rule="evenodd" fill="url(#paint11_linear_196_3578)" fill-rule="evenodd"/>
 </g>
 <g id="g208" transform="matrix(.99538 0 0 .99538 -.73949 -.16185)" opacity=".2" style="mix-blend-mode:multiply">
  <path id="path206" d="m195.19 63.187c0-1.9675 1.598-3.5624 3.569-3.5624h71.39c1.972 0 3.57 1.5949 3.57 3.5624 0 1.9674-1.598 3.5624-3.57 3.5624h-71.39c-1.971 0-3.569-1.595-3.569-3.5624z" fill="url(#paint12_linear_196_3578)"/>
 </g>
 <g id="g212" transform="matrix(.99538 0 0 .99538 -.73949 -.16185)" style="mix-blend-mode:overlay">
  <path id="path210" d="m270.15 60.815h-71.39c-1.312 0-2.376 1.062-2.376 2.3719s1.064 2.3718 2.376 2.3718h71.39c1.313 0 2.377-1.0619 2.377-2.3718s-1.064-2.3719-2.377-2.3719zm-71.39-1.1905c-1.971 0-3.569 1.5949-3.569 3.5624 0 1.9674 1.598 3.5624 3.569 3.5624h71.39c1.972 0 3.57-1.595 3.57-3.5624 0-1.9675-1.598-3.5624-3.57-3.5624z" clip-rule="evenodd" fill="url(#paint13_linear_196_3578)" fill-rule="evenodd"/>
 </g>
 <g id="g216" transform="matrix(.99538 0 0 .99538 -.73949 -.16185)" opacity=".2" style="mix-blend-mode:multiply">
  <path id="path214" d="m168.9 63.187c0 4.9186-3.996 8.9059-8.924 8.9059s-8.924-3.9873-8.924-8.9059 3.996-8.9059 8.924-8.9059 8.924 3.9873 8.924 8.9059z" fill="url(#paint14_linear_196_3578)"/>
 </g>
 <g id="g220" transform="matrix(.99538 0 0 .99538 -.73949 -.16185)" style="mix-blend-mode:overlay">
  <path id="path218" d="m159.97 70.902c4.27 0 7.731-3.4543 7.731-7.7154s-3.461-7.7154-7.731-7.7154-7.731 3.4543-7.731 7.7154 3.461 7.7154 7.731 7.7154zm0 1.1905c4.928 0 8.924-3.9873 8.924-8.9059s-3.996-8.9059-8.924-8.9059-8.924 3.9873-8.924 8.9059 3.996 8.9059 8.924 8.9059z" clip-rule="evenodd" fill="url(#paint15_linear_196_3578)" fill-rule="evenodd"/>
 </g>
 <clipPath id="clipPath">
  <rect id="rect222" x="25.14" y="117.29" width="414" height="736" rx="4.976" fill="#fff" stroke-width=".99623"/>
  <rect id="rect224" x="25.142" y="117" width="414.37" height="736.33" rx="4.9804" stroke="#181818" stroke-width="1.9936" style="mix-blend-mode:overlay"/>
 </clipPath>
 <defs id="defs322">
  <linearGradient id="paint0_linear_196_3578" x1="240.69" x2="457.53" y1="212.31" y2="175.78" gradientUnits="userSpaceOnUse">
   <stop id="stop226" stop-color="#636363" stop-opacity="0" offset="0"/>
   <stop id="stop228" offset="1"/>
  </linearGradient>
  <radialGradient id="paint1_radial_196_3578" cx="0" cy="0" r="1" gradientTransform="matrix(-427.87 190.63 -424.23 -952.2 457.29 174.06)" gradientUnits="userSpaceOnUse">
   <stop id="stop231" stop-color="#636363" offset="0"/>
   <stop id="stop233" offset="1"/>
  </radialGradient>
  <linearGradient id="paint2_linear_196_3578" x1="464.79" x2="468.37" y1="224.79" y2="224.79" gradientUnits="userSpaceOnUse">
   <stop id="stop236" offset="0"/>
   <stop id="stop238" stop-color="#787878" stop-opacity=".4" offset="1"/>
  </linearGradient>
  <linearGradient id="paint3_linear_196_3578" x1="466.58" x2="466.58" y1="203.74" y2="273.98" gradientUnits="userSpaceOnUse">
   <stop id="stop241" offset="0"/>
   <stop id="stop243" stop-opacity="0" offset=".10159"/>
   <stop id="stop245" stop-opacity="0" offset=".89042"/>
   <stop id="stop247" offset="1"/>
  </linearGradient>
  <linearGradient id="paint4_linear_196_3578" x1="3.956" x2=".74292" y1="318.62" y2="318.62" gradientUnits="userSpaceOnUse">
   <stop id="stop250" offset="0"/>
   <stop id="stop252" stop-color="#787878" stop-opacity=".4" offset="1"/>
  </linearGradient>
  <linearGradient id="paint5_linear_196_3578" x1="1.9358" x2="1.9358" y1="295.62" y2="359.5" gradientUnits="userSpaceOnUse">
   <stop id="stop255" offset="0"/>
   <stop id="stop257" stop-opacity="0" offset=".10159"/>
   <stop id="stop259" stop-opacity="0" offset=".89042"/>
   <stop id="stop261" offset="1"/>
  </linearGradient>
  <linearGradient id="paint6_linear_196_3578" x1="3.956" x2=".74292" y1="232.91" y2="232.91" gradientUnits="userSpaceOnUse">
   <stop id="stop264" offset="0"/>
   <stop id="stop266" stop-color="#787878" stop-opacity=".4" offset="1"/>
  </linearGradient>
  <linearGradient id="paint7_linear_196_3578" x1="1.9358" x2="1.9358" y1="209.9" y2="273.78" gradientUnits="userSpaceOnUse">
   <stop id="stop269" offset="0"/>
   <stop id="stop271" stop-opacity="0" offset=".10159"/>
   <stop id="stop273" stop-opacity="0" offset=".89042"/>
   <stop id="stop275" offset="1"/>
  </linearGradient>
  <linearGradient id="paint8_linear_196_3578" x1="3.956" x2=".74292" y1="134.94" y2="134.94" gradientUnits="userSpaceOnUse">
   <stop id="stop278" offset="0"/>
   <stop id="stop280" stop-color="#787878" stop-opacity=".4" offset="1"/>
  </linearGradient>
  <linearGradient id="paint9_linear_196_3578" x1="1.9358" x2="1.9358" y1="121.8" y2="158.3" gradientUnits="userSpaceOnUse">
   <stop id="stop283" offset="0"/>
   <stop id="stop285" stop-opacity="0" offset=".10159"/>
   <stop id="stop287" stop-opacity="0" offset=".89042"/>
   <stop id="stop289" offset="1"/>
  </linearGradient>
  <linearGradient id="paint10_linear_196_3578" x1="254.48" x2="192.2" y1="874.85" y2="966.52" gradientUnits="userSpaceOnUse">
   <stop id="stop292" stop-color="#2B2B2B" offset="0"/>
   <stop id="stop294" stop-color="#2B2B2B" stop-opacity="0" offset="1"/>
  </linearGradient>
  <linearGradient id="paint11_linear_196_3578" x1="271.06" x2="210.94" y1="878.16" y2="940.13" gradientUnits="userSpaceOnUse">
   <stop id="stop297" stop-color="#0B0B0B" offset="0"/>
   <stop id="stop299" stop-color="#CDCDCD" stop-opacity=".48" offset="1"/>
  </linearGradient>
  <linearGradient id="paint12_linear_196_3578" x1="234.47" x2="234.03" y1="59.694" y2="72.93" gradientUnits="userSpaceOnUse">
   <stop id="stop302" offset="0"/>
   <stop id="stop304" stop-color="#A3A3A3" offset="1"/>
  </linearGradient>
  <linearGradient id="paint13_linear_196_3578" x1="230.38" x2="230.38" y1="66.749" y2="59.624" gradientUnits="userSpaceOnUse">
   <stop id="stop307" offset="0"/>
   <stop id="stop309" stop-color="#fff" stop-opacity=".33" offset="1"/>
  </linearGradient>
  <linearGradient id="paint14_linear_196_3578" x1="159.98" x2="149.3" y1="54.454" y2="83.682" gradientUnits="userSpaceOnUse">
   <stop id="stop312" offset="0"/>
   <stop id="stop314" stop-color="#A3A3A3" offset="1"/>
  </linearGradient>
  <linearGradient id="paint15_linear_196_3578" x1="159.05" x2="159.05" y1="72.093" y2="54.281" gradientUnits="userSpaceOnUse">
   <stop id="stop317" offset="0"/>
   <stop id="stop319" stop-color="#fff" stop-opacity=".49" offset="1"/>
  </linearGradient>
 </defs>
</svg>
